X:521
%%etbk:tnset id:251,pos:1,rep:3x,ant:
%%etbk:video src:ytube,cde:JlpIhMwQU-w,desc:first tune
%%etbk:skill ?
%%etbk:pldat 2013-11-13T17:30,2013-11-09T16:23
T: The Glen Road To Carrick
Z: Piano Box Version by Martin Fleischmann
H: Created 2013-09-09 /  Last Modified 2013-11-13
R: reel
M: 4/4
L: 1/8
K: Dmaj
|:!3!F!1!DDD !3!FD!4!G!2!E| !3!F!1!D!1!D!2!F !3!A!5!d!3!A!1!G | !3!F!1!DDD FD!4!G!3!F|1!1!E!5!d=c!3!A !1!G2!3!A!1!G:|2Ed=cA G2Fc||
!3!A!5!ddc !3!A!4!=cAG|!2!F!3!A!5!d=c A2!2!F!1!G|!3!A!5!dd=c !3!A!1!GFD|!1!E!2!G=!5!c!3!A !2!G2z!4!=c|
Add=c A=cAG|FAd=c A2!4!c!1!A|!3!defd !1!A!1!GFD|EG!5!=cA Ggeg|
|:!3!f!1!ddd !3!fd!4!g!2!e | !3!f!1!d!2!fg !4!abag | !2!f!1!dde !3!fde!3!f| !4!g2!5!bg efge:|
|:!5!f!3!d!4!e!2!c !3!d!1!A!2!B!1!G|!2!FFDF !4!A3!1!A|defd !1!A!1!GFD|1 !1!E!5!d=cA G3e:|2Ed=c!3!A !1!GABc||
dD~D2 ADFD|dD~D2 A3A|dD~D2 ADFD|!3!G!2!E=!1!C!2!E !3!G!4!A!3!B!4!c|
dD~D2 ADFA|dD~D2 A3A|defd !1!A!1!GFD|Ed=cA GBAG|
